img/socials-tg.svg

<svg width="28" height="28" viewBox="0 0 28 28" fill="none" xmlns="http://www.w3.org/2000/svg">
<path d="M6.00001 7.96148e-05C2.6863 9.16066e-05 1.28093e-05 2.6864 2.86103e-05 6.00011L0.000104904 22.0001C0.000120705 25.3138 2.68641 28.0001 6.0001 28.0001H22.0001C25.3138 28.0001 28.0001 25.3138 28.0001 22.0001L28.0001 6.00001C28.0001 2.68629 25.3138 9.72129e-06 22.0001 2.17131e-05L6.00001 7.96148e-05ZM20.4961 9.5201C20.2861 11.7321 19.3761 17.1081 18.9141 19.5861C18.7181 20.6361 18.3261 20.9861 17.9621 21.0281C17.1501 21.0981 16.5341 20.4961 15.7501 19.9781C14.5181 19.1661 13.8181 18.6621 12.6281 17.8781C11.2421 16.9681 12.1381 16.4641 12.9361 15.6521C13.1461 15.4421 16.7301 12.1801 16.8001 11.8861C16.8099 11.8416 16.8086 11.7953 16.7964 11.7514C16.7842 11.7075 16.7614 11.6672 16.7301 11.6341C16.6461 11.5641 16.5341 11.5921 16.4361 11.6061C16.3101 11.6341 14.3501 12.9361 10.5281 15.5121C9.96813 15.8901 9.46413 16.0861 9.01613 16.0721C8.51213 16.0581 7.56013 15.7921 6.84613 15.5541C5.96413 15.2741 5.27813 15.1201 5.33413 14.6301C5.36213 14.3781 5.71213 14.1261 6.37013 13.8601C10.4581 12.0821 13.1741 10.9061 14.5321 10.3461C18.4241 8.7221 19.2221 8.4421 19.7541 8.4421C19.8661 8.4421 20.1321 8.4701 20.3001 8.6101C20.4401 8.7221 20.4821 8.8761 20.4961 8.9881C20.4821 9.0721 20.5101 9.3241 20.4961 9.5201Z" fill="url('#paint0_linear_20_5724')"></path>
<defs>
<linearGradient id="paint0_linear_20_5724" x1="1400.01" y1="0" x2="1400.01" y2="2800.01" gradientUnits="userSpaceOnUse">
<stop stop-color="#2AABEE"></stop>
<stop offset="1" stop-color="#229ED9"></stop>
</linearGradient>
</defs>
</svg>

<svg width="28" height="28" fill="none" xmlns="http://www.w3.org/2000/svg"><path d="M6 0a6 6 0 0 0-6 6v16a6 6 0 0 0 6 6h16a6 6 0 0 0 6-6V6a6 6 0 0 0-6-6H6Zm14.496 9.52c-.21 2.212-1.12 7.588-1.582 10.066-.196 1.05-.588 1.4-.952 1.442-.812.07-1.428-.532-2.212-1.05-1.232-.812-1.932-1.316-3.122-2.1-1.386-.91-.49-1.414.308-2.226.21-.21 3.794-3.472 3.864-3.766a.28.28 0 0 0-.07-.252c-.084-.07-.196-.042-.294-.028-.126.028-2.086 1.33-5.908 3.906-.56.378-1.064.574-1.512.56-.504-.014-1.456-.28-2.17-.518-.882-.28-1.568-.434-1.512-.924.028-.252.378-.504 1.036-.77 4.088-1.778 6.804-2.954 8.162-3.514 3.892-1.624 4.69-1.904 5.222-1.904.112 0 .378.028.546.168.14.112.182.266.196.378-.014.084.014.336 0 .532Z" fill="url('#paint0_linear_20_5724')"/><defs><linearGradient id="paint0_linear_20_5724" x1="1400.01" y1="0" x2="1400.01" y2="2800.01" gradientUnits="userSpaceOnUse"><stop stop-color="#2AABEE"/><stop offset="1" stop-color="#229ED9"/></linearGradient></defs></svg>
